X:1
T:Title
L:1/8
M:4/4
K:Eb
V:1 treble nm="Grand Piano"
V:1
 z4[Q:1/4=100] CDEF | G2 G2 CDEF | G2 G2 F2 E2 | D4 DEFG | A2 A2 DEFG | A2 A2 c2 A2 | G4 c2 d2 | %7
 e2 e2 dc=Bc | d2 c2 =B2 A2 | G4 F2 G2 | A2 A2 GFEF | G2 F2 E2 D2 | C4 E2 F2 | G4 c2 A2 | %14
 G4 E2 F2 | G4 c2 A2 | G4 c2 d2 | e2 e2 dc=Bc | d2 c2 =B2 A2 | G4 F2 G2 | A2 A2 GFEF | %21
 G2 F2 E2 D2 | C4 z4 |] %23

